X:1
T:THE IRISH WASHERWOMAN
M:6/8
L:1/8
Q:80
C:PM John Wilson
S:Jig
K:HP
|: {g}e/2d/2|
{g}c{d}A{e}A{g}G{d}A{e}A|
{g}c{d}A{d}c{gef}edc|  !
{g}dB{G}B{g}G{d}B{G}B|
{g}dB{G}B{gfg}fed|
{g}c{d}A{e}A{g}G{d}A{e}A|  !
{g}c{d}A{d}c{gef}edc|
{gde}dcd{g}Bed|
{g}c{d}A{e}A{GAG}A2:| |:  !
e|
agaA{d}ce|
a2{GdG}a{g}agf|
g{a}egGBd|  !
g2{GdG}g{g}gfe|1
agaA{d}ce|
a2{GdG}agfe|  !
{gde}dcd{g}Bed|
{g}c{d}A{e}A{GAG}A2:|2
{ag}agf{gef}ec{d}A|  !
{ag}agf{gef}ed{d}c|
{gde}dcd{g}Bed|
{g}c{d}A{e}A{GAG}A2|] |:  !
a/2g/2|
{a}fd{c}d{g}Ad{c}d|
{g}fd{c}d{ag}agf|  !
{a}ge{A}e{g}ce{A}e|
{a}ge{A}e{g}faf|
fd{c}d{g}Ad{c}d|  !
{g}fd{c}d{ag}agf|
g{g}fg{g}ece|
{g}fd{c}d{gdc}d2:| |:  !
{g}d{e}Ad{g}d{e}Ad|
{g}d{e}Ad{g}fed|
{g}c{d}A{d}c{g}c{d}A{d}c|  !
{g}c{d}A{d}c{g}edc|1
{g}d{e}Ad{g}d{e}Ad|
{g}Adf{g}edc|  !
{g}d{e}Ad{g}fed|
{g}c{d}A{e}A{GAG}A2:|2
{g}fa{g}aea{g}a|  !
{Gdc}da{g}aca{g}a|
dcd{g}Bed|
{g}c{d}A{e}A{GAG}A2|]  !

